X:1155
T:Quick Step in the Battle of Prague.
M:2/4
L:1/8
Q:1/4=84
P:ABA % Aird uses a da capo
Z:Jack Campin * www.campin.me.uk * 2009
K:D
P:A
a>g ff|   f>e   dd|   ed    ec|d/e/f/e/ d/e/f/g/|a>g   ff|fe    dd|ed ec |d2d2:|
P:B
e2  f2|{a}gg/f/ fg|{b}aa/g/ fa|ag       gf      |ag    gf|ab/a/ gf|f2 e2||

